projects/flag-game/flags/South Korea.svg

<svg viewBox="0 0 1000 667" xmlns="http://www.w3.org/2000/svg" xmlns:xlink="http://www.w3.org/1999/xlink"><clipPath id="a"><path d="m0 0h1000v666.71875h-1000zm0 0"/></clipPath><g clip-path="url(#a)"><path d="m0 666.667969v-666.667969h1000v666.667969zm0 0" fill="#fff" fill-rule="evenodd"/></g><g fill-rule="evenodd"><path d="m153.316406 202.359375 92.445313-138.671875 92.449219 61.632812-92.449219 138.675782zm0 0"/><path d="m168.722656 229.328125 107.855469-161.789063 11.554687 7.707032-107.855468 161.789062zm0 0" fill="#fff"/><path d="m203.390625 252.441406 107.855469-161.789062 11.558594 7.703125-107.859376 161.789062zm0 0" fill="#fff"/><path d="m661.789062 541.347656 92.449219-138.679687 92.445313 61.640625-92.445313 138.671875zm0 0"/><path d="m677.195312 568.3125 107.859376-161.792969 11.554687 7.707031-107.855469 161.789063zm0 0" fill="#fff"/><path d="m711.867188 591.421875 107.855468-161.789063 11.554688 7.703126-107.855469 161.789062zm0 0" fill="#fff"/><path d="m692.605469 470.085938 7.703125-11.558594 115.5625 77.039062-7.707032 11.558594zm0 0" fill="#fff"/><path d="m592.445312 194.65625c76.59375 51.0625 97.289063 154.539062 46.234376 231.125-51.066407 76.589844-154.542969 97.285156-231.125 46.230469-76.59375-51.066407-97.289063-154.542969-46.234376-231.125 51.066407-76.589844 154.542969-97.289063 231.125-46.230469zm0 0" fill="#c60c30"/><path d="m361.320312 240.886719c-24.199218 36.300781-13.1875 91.355469 23.121094 115.558593 36.300782 24.203126 91.355469 13.195313 115.558594-23.113281 24.203125-36.304687 79.257812-47.3125 115.558594-23.109375 36.308594 24.199219 47.320312 79.257813 23.121094 115.558594-24.210938 36.304688-63.207032 62.425781-105.992188 70.980469-42.789062 8.558593-88.835938-.550781-125.132812-24.75-36.308594-24.207031-62.425782-63.207031-70.984376-105.992188-8.558593-42.789062.550782-88.832031 24.75-125.132812zm0 0" fill="#003478"/><path d="m245.761719 602.980469-92.445313-138.671875 92.445313-61.640625 92.449219 138.679687zm0 0"/><path d="m276.578125 599.125-107.855469-161.789062 11.554688-7.703126 107.855468 161.789063zm0 0" fill="#fff"/><path d="m311.246094 576.015625-107.855469-161.789063 11.554687-7.707031 107.859376 161.792969zm0 0" fill="#fff"/><path d="m754.238281 263.996094-92.449219-138.675782 92.449219-61.632812 92.445313 138.671875zm0 0"/><path d="m785.054688 260.144531-107.859376-161.789062 11.558594-7.703125 107.855469 161.789062zm0 0" fill="#fff"/><path d="m819.722656 237.035156-107.855468-161.789062 11.554687-7.707032 107.855469 161.789063zm0 0" fill="#fff"/><path d="m700.308594 208.136719-7.703125-11.554688 115.558593-77.039062 7.707032 11.554687zm0 0" fill="#fff"/><path d="m750.382812 183.101562-15.40625-23.113281 23.113282-15.40625 15.40625 23.109375zm0 0"/><path d="m226.503906 524.011719-7.707031-11.554688 46.226563-30.816406 7.703124 11.554687zm0 0" fill="#fff"/></g></svg>

<?xml version="1.0" encoding="UTF-8"?>
<svg xmlns="http://www.w3.org/2000/svg" xmlns:xlink="http://www.w3.org/1999/xlink" viewBox="0 0 1000 667" version="1.1">
<defs>
<clipPath id="clip1">
  <path d="M 0 0 L 1000 0 L 1000 666.71875 L 0 666.71875 Z M 0 0 "/>
</clipPath>
</defs>
<g id="surface1105">
<g clip-path="url(#clip1)" clip-rule="nonzero">
<path style=" stroke:none;fill-rule:evenodd;fill:rgb(99.998474%,99.998474%,99.998474%);fill-opacity:1;" d="M 0 666.667969 L 0 0 L 1000 0 L 1000 666.667969 Z M 0 666.667969 "/>
</g>
<path style=" stroke:none;fill-rule:evenodd;fill:rgb(0%,0%,0%);fill-opacity:1;" d="M 153.316406 202.359375 L 245.761719 63.6875 L 338.210938 125.320312 L 245.761719 263.996094 Z M 153.316406 202.359375 "/>
<path style=" stroke:none;fill-rule:evenodd;fill:rgb(99.998474%,99.998474%,99.998474%);fill-opacity:1;" d="M 168.722656 229.328125 L 276.578125 67.539062 L 288.132812 75.246094 L 180.277344 237.035156 Z M 168.722656 229.328125 "/>
<path style=" stroke:none;fill-rule:evenodd;fill:rgb(99.998474%,99.998474%,99.998474%);fill-opacity:1;" d="M 203.390625 252.441406 L 311.246094 90.652344 L 322.804688 98.355469 L 214.945312 260.144531 Z M 203.390625 252.441406 "/>
<path style=" stroke:none;fill-rule:evenodd;fill:rgb(0%,0%,0%);fill-opacity:1;" d="M 661.789062 541.347656 L 754.238281 402.667969 L 846.683594 464.308594 L 754.238281 602.980469 Z M 661.789062 541.347656 "/>
<path style=" stroke:none;fill-rule:evenodd;fill:rgb(99.998474%,99.998474%,99.998474%);fill-opacity:1;" d="M 677.195312 568.3125 L 785.054688 406.519531 L 796.609375 414.226562 L 688.753906 576.015625 Z M 677.195312 568.3125 "/>
<path style=" stroke:none;fill-rule:evenodd;fill:rgb(99.998474%,99.998474%,99.998474%);fill-opacity:1;" d="M 711.867188 591.421875 L 819.722656 429.632812 L 831.277344 437.335938 L 723.421875 599.125 Z M 711.867188 591.421875 "/>
<path style=" stroke:none;fill-rule:evenodd;fill:rgb(99.998474%,99.998474%,99.998474%);fill-opacity:1;" d="M 692.605469 470.085938 L 700.308594 458.527344 L 815.871094 535.566406 L 808.164062 547.125 Z M 692.605469 470.085938 "/>
<path style=" stroke:none;fill-rule:evenodd;fill:rgb(77.645874%,4.705811%,18.823242%);fill-opacity:1;" d="M 592.445312 194.65625 C 669.039062 245.71875 689.734375 349.195312 638.679688 425.78125 C 587.613281 502.371094 484.136719 523.066406 407.554688 472.011719 C 330.960938 420.945312 310.265625 317.46875 361.320312 240.886719 C 412.386719 164.296875 515.863281 143.597656 592.445312 194.65625 Z M 592.445312 194.65625 "/>
<path style=" stroke:none;fill-rule:evenodd;fill:rgb(0%,20.391846%,47.058105%);fill-opacity:1;" d="M 361.320312 240.886719 C 337.121094 277.1875 348.132812 332.242188 384.441406 356.445312 C 420.742188 380.648438 475.796875 369.640625 500 333.332031 C 524.203125 297.027344 579.257812 286.019531 615.558594 310.222656 C 651.867188 334.421875 662.878906 389.480469 638.679688 425.78125 C 614.46875 462.085938 575.472656 488.207031 532.6875 496.761719 C 489.898438 505.320312 443.851562 496.210938 407.554688 472.011719 C 371.246094 447.804688 345.128906 408.804688 336.570312 366.019531 C 328.011719 323.230469 337.121094 277.1875 361.320312 240.886719 Z M 361.320312 240.886719 "/>
<path style=" stroke:none;fill-rule:evenodd;fill:rgb(0%,0%,0%);fill-opacity:1;" d="M 245.761719 602.980469 L 153.316406 464.308594 L 245.761719 402.667969 L 338.210938 541.347656 Z M 245.761719 602.980469 "/>
<path style=" stroke:none;fill-rule:evenodd;fill:rgb(99.998474%,99.998474%,99.998474%);fill-opacity:1;" d="M 276.578125 599.125 L 168.722656 437.335938 L 180.277344 429.632812 L 288.132812 591.421875 Z M 276.578125 599.125 "/>
<path style=" stroke:none;fill-rule:evenodd;fill:rgb(99.998474%,99.998474%,99.998474%);fill-opacity:1;" d="M 311.246094 576.015625 L 203.390625 414.226562 L 214.945312 406.519531 L 322.804688 568.3125 Z M 311.246094 576.015625 "/>
<path style=" stroke:none;fill-rule:evenodd;fill:rgb(0%,0%,0%);fill-opacity:1;" d="M 754.238281 263.996094 L 661.789062 125.320312 L 754.238281 63.6875 L 846.683594 202.359375 Z M 754.238281 263.996094 "/>
<path style=" stroke:none;fill-rule:evenodd;fill:rgb(99.998474%,99.998474%,99.998474%);fill-opacity:1;" d="M 785.054688 260.144531 L 677.195312 98.355469 L 688.753906 90.652344 L 796.609375 252.441406 Z M 785.054688 260.144531 "/>
<path style=" stroke:none;fill-rule:evenodd;fill:rgb(99.998474%,99.998474%,99.998474%);fill-opacity:1;" d="M 819.722656 237.035156 L 711.867188 75.246094 L 723.421875 67.539062 L 831.277344 229.328125 Z M 819.722656 237.035156 "/>
<path style=" stroke:none;fill-rule:evenodd;fill:rgb(99.998474%,99.998474%,99.998474%);fill-opacity:1;" d="M 700.308594 208.136719 L 692.605469 196.582031 L 808.164062 119.542969 L 815.871094 131.097656 Z M 700.308594 208.136719 "/>
<path style=" stroke:none;fill-rule:evenodd;fill:rgb(0%,0%,0%);fill-opacity:1;" d="M 750.382812 183.101562 L 734.976562 159.988281 L 758.089844 144.582031 L 773.496094 167.691406 Z M 750.382812 183.101562 "/>
<path style=" stroke:none;fill-rule:evenodd;fill:rgb(99.998474%,99.998474%,99.998474%);fill-opacity:1;" d="M 226.503906 524.011719 L 218.796875 512.457031 L 265.023438 481.640625 L 272.726562 493.195312 Z M 226.503906 524.011719 "/>
</g>
</svg>
